X:1
T:Title
%%score 1 2
L:1/8
Q:1/4=82
M:2/4
K:D
V:1 treble nm="Grand Piano, Soprano"
V:2 bass nm="Choir Pad, Let the Gospel Trumpet Sound"
V:1
 D/[DE]/[DF] [FA][FA] | [GB] [FA]3 | [EG]/[DF]/[EG] [GB][GB] | [Ac] [GB]3 | %4
w: By~William~Batchelder~Bradbury * * * *||||
 [EG]/[DF]/[CE] [EG][EG] | [FA] [EG]3 | [DF]/[CE]/[DF] [FA][FA] | [DF] [CE]3 | %8
w: ||||
 D/[DE]/[DF] [FA][FA] | [GB] [FA]3 | [EG]/[DF]/[EG] [GB][GB] | [Ac] [GB]3 | %12
w: ||||
 [FA]/[EG]/[DF] [FA][EG] | [DF][CE] [EG][DF] | [CE]D [DF][CF]- | [CF]/[CE]/ D3 | %16
w: ||||
 [CA]/[CG]/[DF] [FA][Fd]- | [Fd]/[Ge]/ [Fd]3 | [Fd]/[Ac]/[GB] [Ge][Ge]- | [Ge]/[GB]/ [Ge]3 | %20
w: ||||
 [^Gd]/[Gd]/[Ac] [ce][Bd] | [Ac][^GB] [Bd][Ac] | [^GB]A [Ac][GB] | [^Ge] [Ac]3 | %24
w: ||||
 [CA]/[CG]/[DF] [FA][Fd]- | [Fd]/[Ge]/ [Fd]3 | [Fd]/[Ac]/[GB] [Ge][Ge]- | [Ge]/[GB]/ [Ge]3 | %28
w: ||||
 [^Gd]/[Gd]/[Ac] [ce][Bd] | [Ac][^GB] [Bd][Ac] | [^GB]A [Ac][GB] | [^Gc] A3 | %32
w: ||||
 D/[DE]/[DF] [FA][FA] | [GB] [FA]3 | [EG]/[DF]/[EG] [GB][GB] | [Ac] [GB]3 | %36
w: ||||
 [FA]/[EG]/[DF] [FA][EG] | [DF][CE] [EG][DF] | [CE]D [DF][CF]- | [CF]/[CE]/ D3- | D4 |] %41
w: |||||
V:2
 [D,F,]/[D,G,]/[D,A,] [D,D][D,D] | [D,D] [D,D]3 | [D,D]/[D,D]/[G,D] [G,D][G,D] | [G,D] [G,D]3 | %4
 [G,B,]/[G,B,]/A, A,[A,C] | [A,C] [A,C]3 | [A,,A,]/[A,,A,]/[D,A,] [D,D][D,D] | [D,A,] [A,,A,]3 | %8
 [D,F,]/[D,G,]/[D,A,] [D,D][D,D] | [D,D] [D,D]3 | [D,D]/[D,D]/[G,D] [G,D][G,D] | [G,D] [G,D]3 | %12
 [G,D]/[G,D]/[D,D] [D,D][D,A,] | [D,A,][A,,A,] [A,,A,][A,,A,] | [A,,A,][A,,F,] [A,,A,][A,,A,]- | %15
 [A,,A,]/[A,,G,]/ [D,F,]3 | [A,,A,]/[A,,A,]/[D,A,] [D,A,][D,A,]- | [D,A,]/[D,A,]/ [D,A,]3 | %18
 [D,D]/[D,D]/[G,D] [G,B,][E,B,]- | [E,B,]/[E,D]/ [E,B,]3 | [E,B,]/[E,B,]/A, A,[A,E] | %21
 [A,E][E,E] [E,E][E,E] | [E,D][A,C] [A,E][E,E] | [E,E] [A,E]3 | %24
 [A,,A,]/[A,,A,]/[D,A,] [D,A,][D,A,]- | [D,A,]/[D,A,]/ [D,A,]3 | [D,D]/[D,D]/[G,D] [G,B,][E,B,]- | %27
 [E,B,]/[E,D]/ [E,B,]3 | [E,B,]/[E,B,]/A, A,[A,E] | [A,E][E,E] [E,E][E,E] | [E,D][E,C] [E,E][E,D] | %31
 [E,E] [A,C]3 | [D,F,]/[D,G,]/[D,A,] [D,D][D,D] | [D,D] [D,D]3 | [D,D]/[D,D]/[G,D] [G,D][G,D] | %35
 [G,D] [G,D]3 | [G,D]/[G,D]/[D,D] [D,D][D,A,] | [D,A,][A,,A,] [A,,A,][A,,A,] | %38
 [A,,A,][A,,F,] [A,,A,][A,,A,]- | [A,,A,]/[A,,G,]/ [D,F,]3- | [D,F,]4 |] %41

